X: 39779
T: That Holy Girl Who Broke My Heart
R: reel
M: 4/4
K: Eminor
BA|"Em"GEEE "Em/D#"^D2EF|"Em/D"GEFG "G"B2AB|"Am"cABc "B7"^d2ef|"F#m7b5"gfe^c "B7"^d=cBA|
"Em"GEEE "Em/D#"^D2EF|"Em/D"GEFG "G"B2AB|"Am"cABc "B7"^def2|"C"gf"B7"e^d "Em"e2^de||
"F"=fcAG F2GA|"Daug"_BAG^F "Gm"G3=F|"C"=FEGE cE"C6"AG|"F"G=FEF "C"c2de|
"F"=fcAG F2GF|"Em"E^DEG B2AB|"Am"cBAB "F#7"^c^dec|"B7"^d^cBA B2BA||
"Em"GEEE "Em/D#"^D2EF|[M:6/4]"Em/D"GEFG "A"A4z2GA|[M:4/4]"G"BedB "F#m7b5"AcBA|"C"GE"B7"F^D "Em"E2|

